html/dist/img/svg/heart.svg

<svg width="312" height="339" viewBox="0 0 312 339" fill="none" xmlns="http://www.w3.org/2000/svg">
<path fill-rule="evenodd" clip-rule="evenodd" d="M119.953 7.18065C126.837 9.7456 137.235 15.4924 143.062 19.9508C148.89 24.4068 154.706 28.0538 155.985 28.0538C157.263 28.0538 163.079 24.4068 168.907 19.9508C185.914 6.94338 203.617 1.23453 227.056 1.20131C244.863 1.17759 249.059 2.0555 263.031 8.73718C280.767 17.2198 292.688 29.4561 301.411 48.1344C320.157 88.2648 313.945 130.063 283.317 169.914C269.303 188.146 252.296 202.959 205.713 237.513C182.921 254.417 162.433 270.528 160.181 273.314C154.031 280.928 154.846 294.455 161.969 302.937C173.138 316.239 185.402 315.01 207.378 298.389L219.698 289.071L218.349 277.649C216.262 259.983 225.086 244.99 242.891 235.957C269.666 222.371 302.925 249.474 297.137 280.159C292.617 304.136 267.104 318.913 244.863 310.44C239.448 308.378 236.708 309.557 221.981 320.292C204.119 333.309 192.293 338.621 180.849 338.768C135.43 339.35 112.387 281.666 145.703 250.789C149.404 247.358 169.482 231.933 190.321 216.507C231.081 186.335 262.758 156.742 272.73 139.514C295.714 99.813 285.685 49.1737 251.415 31.8787C246.492 29.3944 237.778 28.0609 226.551 28.0775C205.514 28.106 191.32 34.0236 173.397 50.2438C166.655 56.3441 158.874 61.2723 155.985 61.2723C153.096 61.2723 145.314 56.3441 138.573 50.2438C120.649 34.0236 106.455 28.106 85.4177 28.0775C58.8249 28.0419 41.6426 39.4525 32.8573 62.9783C25.1707 83.562 24.4058 98.7144 30.0985 117.497C38.5547 145.394 56.6179 168.084 96.8552 201.365C105.69 208.673 106.803 210.618 105.387 216.277C103.358 224.38 94.0089 228.549 86.5662 224.672C75.4744 218.897 48.0386 194.597 34.7209 178.755C-0.955599 136.311 -9.37389 90.806 10.5577 48.1344C22.0236 23.5835 44.2664 6.02275 69.3957 1.67824C83.0876 -0.687399 105.349 1.73281 119.953 7.18065ZM249.578 283.462C243.674 279.134 243.755 266.323 249.718 261.803C256.031 257.017 261.726 257.39 267.281 262.956C272.972 268.658 273.291 274.312 268.33 281.409C264.165 287.37 256.116 288.25 249.578 283.462Z" fill="white"/>
</svg>

<svg width="312" height="339" viewBox="0 0 312 339" fill="none" xmlns="http://www.w3.org/2000/svg"><path fill-rule="evenodd" clip-rule="evenodd" d="M119.953 7.18c6.884 2.566 17.282 8.312 23.109 12.77 5.828 4.457 11.644 8.104 12.923 8.104 1.278 0 7.094-3.647 12.922-8.103 17.007-13.008 34.71-18.716 58.149-18.75 17.807-.023 22.003.854 35.975 7.536 17.736 8.483 29.657 20.72 38.38 39.397 18.746 40.13 12.534 81.929-18.094 121.78-14.014 18.232-31.021 33.045-77.604 67.599-22.792 16.904-43.28 33.015-45.532 35.801-6.15 7.614-5.335 21.141 1.788 29.623 11.169 13.302 23.433 12.073 45.409-4.548l12.32-9.318-1.349-11.422c-2.087-17.666 6.737-32.659 24.542-41.692 26.775-13.586 60.034 13.517 54.246 44.202-4.52 23.977-30.033 38.754-52.274 30.281-5.415-2.062-8.155-.883-22.882 9.852-17.862 13.017-29.688 18.329-41.132 18.476-45.419.582-68.462-57.102-35.146-87.979 3.701-3.431 23.779-18.856 44.618-34.282 40.76-30.172 72.437-59.765 82.409-76.993 22.984-39.701 12.955-90.34-21.315-107.635-4.923-2.485-13.637-3.818-24.864-3.802-21.037.029-35.231 5.947-53.154 22.167-6.742 6.1-14.523 11.028-17.412 11.028-2.889 0-10.671-4.928-17.412-11.028-17.924-16.22-32.118-22.138-53.155-22.166-26.593-.036-43.775 11.375-52.56 34.9-7.687 20.584-8.452 35.736-2.76 54.519 8.457 27.897 26.52 50.587 66.757 83.868 8.835 7.308 9.948 9.253 8.532 14.912-2.029 8.103-11.378 12.272-18.82 8.395-11.093-5.775-38.528-30.075-51.846-45.917C-.956 136.311-9.374 90.806 10.558 48.135 22.024 23.583 44.266 6.022 69.396 1.677c13.692-2.365 35.953.055 50.557 5.503zm129.625 276.282c-5.904-4.328-5.823-17.139.14-21.659 6.313-4.786 12.008-4.413 17.563 1.153 5.691 5.702 6.01 11.356 1.049 18.453-4.165 5.961-12.214 6.841-18.752 2.053z" fill="#fff"/></svg>
